assets/icons/qvision/send_and_archive.svg

<svg xmlns="http://www.w3.org/2000/svg" height="24" viewBox="0 0 24 24" width="24"><path d="M0 0h24v24H0V0z" fill="none"/><path d="M21 10h-3L2 3v7l9 2-9 2v7l8-3.5V21c0 1.1.9 2 2 2h9c1.1 0 2-.9 2-2v-9c0-1.1-.9-2-2-2zm0 11h-9v-9h9v9zm-4.5-1L13 16h2v-3h3v3h2l-3.5 4z"/></svg>

<svg width="24" height="24" viewBox="0 0 24 24" fill="none" xmlns="http://www.w3.org/2000/svg">
<g clip-path="url(#clip0_147_4692)">
<path d="M21 10H18L2 3V10L11 12L2 14V21L10 17.5V21C10 22.1 10.9 23 12 23H21C22.1 23 23 22.1 23 21V12C23 10.9 22.1 10 21 10ZM21 21H12V12H21V21ZM16.5 20L13 16H15V13H18V16H20L16.5 20Z" fill="#323232"/>
</g>
<defs>
<clipPath id="clip0_147_4692">
<rect width="24" height="24" fill="white"/>
</clipPath>
</defs>
</svg>
